!! 00000] TT[WS
!!!OTL: HuilÅ daguer haibuwan
!!!ARE: Asia, China,ˇShanxi Ningwu
!! Ethnic Group: Han
!! WI, 80 (1)
!!!SCT: J0098
!!!YEM: Copyright 1995, estate of Helmut Schaffrath.
**kern
*ICvox
*Ivox
*M2/4
*k[b-]
*F:
{8dd
8a
8cc
8dd
=1
8g
16f
16g
8d
8c
=2
8dd
8a
8cc
16dd
16cc
=3
2g}
=4
{8dd
8a
8.cc
16dd
=5
8g
16f
16d
4c
=6
8g
8cc
8f
16e
16d
=7
2c}
==
!!!AGN: Xiaodiao. Suku
!!!ONB: ESAC (Essen Associative Code) Database: CHINA
!!!AMT: simple duple
!!!AIN: vox
!!!EED: Helmut Schaffrath
!!!EEV: 1.0
*-
